X:178
T: WAS HELFEN MIR TAUSEND DUKATEN
N: E1321
O: Europa, Mitteleuropa, Deutschland
R: Staende -, Soldaten -, Kriegs - Lied
M: 6/8
L: 1/8
K: F
C | FCFAFA | c2fdB
G | cAFBGE | F3z2
C | FCFAFA | c2fdB
G | cAFBGE | F3z2
c | cGGGFG | A3z2
c | cGGGFG | A3z2
C | FCFAFA | c2fdB
G | cAFBGE | F3z2

@@@ Tune index: 4862
